build/svg/cmd/sc_definedbname.svg

<svg xmlns="http://www.w3.org/2000/svg" viewBox="0 0 16 16"><path fill="#fff" fill-rule="evenodd" d="M2 5h2v8H2z"/><path fill="#a6d74f" fill-rule="evenodd" d="M2 2h11v2H2z"/><path d="M1 3v9c0 2 1 2 3 2h1V5h9V3c0-2-1-2-3-2H4C2 1 1 1 1 3zm1 0c0-1 1-1 2-1v2H2zm3-1h2v2H5zm3 0h2v2H8zm3 0c1 0 2 0 2 1v1h-2zM2 5h2v2H2zm0 3h2v2H2zm0 3h2v2c-1 0-2 0-2-1z" fill="#6d6d6d" fill-rule="evenodd"/><path d="M9 7c-.007-.235.848-.32 1.727-.074.88.243 1.115.655 2.11.938.92.262 2.169-.03 2.163.206v4.587c.01.315-1.129.326-2.126.087-.994-.238-1.18-.7-2.12-.943-.936-.24-1.776.168-1.754-.263z" fill="#fa9381" fill-rule="evenodd"/><rect width="2" height="10" x="7" y="6" ry="1" fill="#6d6d6d" fill-rule="evenodd"/></svg>

<?xml version="1.0" encoding="UTF-8" standalone="no"?>
<svg
   xmlns:dc="http://purl.org/dc/elements/1.1/"
   xmlns:cc="http://creativecommons.org/ns#"
   xmlns:rdf="http://www.w3.org/1999/02/22-rdf-syntax-ns#"
   xmlns:svg="http://www.w3.org/2000/svg"
   xmlns="http://www.w3.org/2000/svg"
   xmlns:sodipodi="http://sodipodi.sourceforge.net/DTD/sodipodi-0.dtd"
   xmlns:inkscape="http://www.inkscape.org/namespaces/inkscape"
   viewBox="0 0 16 16"
   version="1.1"
   id="svg4"
   sodipodi:docname="sc_definedbname.svg"
   inkscape:export-filename="/home/jupiter007/Libreoffice yaru theme fullcolor/build/cmd/sc_definedbname.png"
   inkscape:export-xdpi="96"
   inkscape:export-ydpi="96"
   inkscape:version="0.92.5 (2060ec1f9f, 2020-04-08)">
  <metadata
     id="metadata10">
    <rdf:RDF>
      <cc:Work
         rdf:about="">
        <dc:format>image/svg+xml</dc:format>
        <dc:type
           rdf:resource="http://purl.org/dc/dcmitype/StillImage" />
      </cc:Work>
    </rdf:RDF>
  </metadata>
  <defs
     id="defs8">
    <linearGradient
       id="a"
       gradientTransform="matrix(0.56057,0,0,0.59553,7.4824994,6.6783701)"
       gradientUnits="userSpaceOnUse"
       x1="3.1389999"
       x2="2"
       y1="8.1990004"
       y2="8">
      <stop
         offset="0"
         stop-color="#e4e4e4"
         id="stop2" />
      <stop
         offset="1"
         stop-color="#fff"
         id="stop4" />
    </linearGradient>
    <linearGradient
       id="b"
       gradientTransform="matrix(0.16834,0.03973,0.00114,0.1974,8.3094994,5.1483701)"
       gradientUnits="userSpaceOnUse"
       spreadMethod="reflect"
       x1="0.36500001"
       x2="28.059999"
       y1="19.599001"
       y2="19.599001">
      <stop
         offset="0"
         stop-color="#ffcd7d"
         id="stop7" />
      <stop
         offset=".262"
         stop-color="#fc8f36"
         id="stop9" />
      <stop
         offset="1"
         stop-color="#e23a0e"
         id="stop11" />
    </linearGradient>
    <linearGradient
       id="c"
       gradientTransform="matrix(0.12692,0.02995,8.5e-4,0.14783,9.2264994,5.6833701)"
       gradientUnits="userSpaceOnUse"
       spreadMethod="reflect"
       x1="30"
       x2="-11"
       y1="30"
       y2="30">
      <stop
         offset="0"
         stop-color="#ba3d12"
         id="stop14" />
      <stop
         offset="1"
         stop-color="#db6737"
         id="stop16" />
    </linearGradient>
  </defs>
  <sodipodi:namedview
     pagecolor="#ffffff"
     bordercolor="#666666"
     borderopacity="1"
     objecttolerance="10"
     gridtolerance="10"
     guidetolerance="10"
     inkscape:pageopacity="0"
     inkscape:pageshadow="2"
     inkscape:window-width="1920"
     inkscape:window-height="1011"
     id="namedview6"
     showgrid="true"
     inkscape:zoom="29.5"
     inkscape:cx="-4.447816"
     inkscape:cy="9.0114583"
     inkscape:window-x="0"
     inkscape:window-y="32"
     inkscape:window-maximized="1"
     inkscape:current-layer="svg4">
    <inkscape:grid
       type="xygrid"
       id="grid827" />
  </sodipodi:namedview>
  <rect
     style="opacity:1;fill:#ffffff;fill-opacity:1;fill-rule:evenodd;stroke:none;stroke-width:2;stroke-linecap:butt;stroke-linejoin:round;stroke-miterlimit:4;stroke-dasharray:none;stroke-opacity:1"
     id="rect843"
     width="2"
     height="8"
     x="2"
     y="4.9999995" />
  <rect
     style="opacity:1;fill:#a6d74f;fill-opacity:1;fill-rule:evenodd;stroke:none;stroke-width:2;stroke-linecap:butt;stroke-linejoin:round;stroke-miterlimit:4;stroke-dasharray:none;stroke-opacity:1"
     id="rect845"
     width="11"
     height="2"
     x="2"
     y="1.9999999" />
  <path
     style="opacity:1;fill:#6d6d6d;fill-opacity:1;fill-rule:evenodd;stroke:none;stroke-width:2;stroke-linecap:butt;stroke-linejoin:round;stroke-miterlimit:4;stroke-dasharray:none;stroke-opacity:1"
     d="m 1,3 v 2 7 c 0,2 1,2 3,2 H 5 V 5 h 9 V 3 C 14,1 13,1 11,1 H 5 4 C 2,1 1,1 1,3 Z M 2,3 C 2,2 3,2 4,2 V 4 H 2 Z M 5,2 H 7 V 4 H 5 Z M 8.0000004,2 H 10 V 4 H 8.0000004 Z M 11,2 c 1,0 2,0 2,1 V 4 H 11 Z M 2,5 H 4 V 7 H 2 Z M 2,8 H 4 V 9.9999997 H 2 Z m 0,3 h 2 v 2 C 3,13 2,13 2,12 Z"
     id="rect824"
     inkscape:connector-curvature="0"
     sodipodi:nodetypes="ccccccccccccccccccccccccccccccccccccccccccccccc" />
  <path
     id="path54"
     d="M 9,7 C 8.993,6.765 9.8479996,6.68 10.727,6.926 c 0.88,0.243 1.115,0.655 2.11,0.938 0.92,0.262 2.169,-0.03 2.163,0.206 l 0,4.587 c 0.01,0.315 -1.129,0.326 -2.126,0.087 -0.994,-0.238 -1.18,-0.7 -2.12,-0.943 C 9.8179996,11.561 8.978,11.969 9,11.538 Z"
     inkscape:connector-curvature="0"
     style="fill:#fa9381;fill-opacity:1;fill-rule:evenodd;stroke:none;stroke-width:0.991;stroke-linejoin:round"
     sodipodi:nodetypes="ccccccccc" />
  <rect
     style="opacity:1;fill:#6d6d6d;fill-opacity:1;fill-rule:evenodd;stroke:none;stroke-width:2;stroke-linecap:butt;stroke-linejoin:round;stroke-miterlimit:4;stroke-dasharray:none;stroke-opacity:1"
     id="rect861"
     width="2"
     height="10"
     x="7"
     y="6"
     ry="1" />
</svg>
